src/assets/icons/flag.svg

<svg width="14" height="14" viewBox="0 0 14 14" fill="none" xmlns="http://www.w3.org/2000/svg">
<g id="flag">
<g clip-path="url(#clip0_156_4685)">
<path id="Vector" d="M12.9399 0.960733C12.7767 0.847918 12.5687 0.823915 12.3831 0.897524C11.463 1.25677 9.88196 1.76404 9.40189 1.71283C8.95464 1.66242 8.24655 1.29277 7.56086 0.934328C6.70075 0.484671 5.88704 0.0606177 5.18135 0.00461057C4.15402 -0.0673986 1.69211 0.725503 1.20885 0.887924C0.964015 0.970334 0.799194 1.19916 0.799194 1.4568V3.16261V8.28167V13.3999C0.799194 13.7312 1.06803 14 1.39927 14C1.73051 14 1.99935 13.7312 1.99935 13.3999V8.71772C3.05308 8.38488 4.55487 7.97843 5.08534 8.02724C5.5478 8.06324 6.3215 8.46809 7.00399 8.82414C7.82249 9.25139 8.59619 9.65544 9.26588 9.73145C9.32188 9.73785 9.38269 9.74105 9.4483 9.74105C10.4652 9.74105 12.4167 8.99856 12.8191 8.84094C13.0488 8.75133 13.2008 8.5289 13.2008 8.28247V1.4576C13.2024 1.25757 13.1048 1.07275 12.9399 0.960733ZM12.0022 7.86642C11.0637 8.20966 9.82915 8.57771 9.40269 8.5385C8.95544 8.4881 8.24734 8.11845 7.56166 7.76C6.70155 7.31035 5.88784 6.88549 5.18215 6.82948C5.13255 6.82548 5.07894 6.82388 5.02293 6.82388C4.24283 6.82388 2.88906 7.19113 2.00095 7.46076V3.16181V1.89205C3.05228 1.56081 4.55807 1.14876 5.08694 1.20156C5.5494 1.23757 6.3231 1.64242 7.00559 1.99846C7.82409 2.42572 8.59779 2.82897 9.26748 2.90498C9.91316 2.98019 11.1533 2.60814 12.0014 2.31611V7.86642H12.0022Z" fill="black"/>
</g>
</g>
<defs>
<clipPath id="clip0_156_4685">
<rect width="14" height="14" fill="white"/>
</clipPath>
</defs>
</svg>

<svg xmlns="http://www.w3.org/2000/svg" fill="none" viewBox="0 0 14 14"><g clip-path="url(#a)"><path fill="#000" d="M12.94.96a.6.6 0 0 0-.557-.062c-.92.359-2.501.866-2.981.815-.447-.05-1.155-.42-1.841-.779C6.7.484 5.887.061 5.18.004 4.154-.066 1.692.727 1.21.889a.6.6 0 0 0-.41.569V13.4a.6.6 0 0 0 1.2 0V8.718c1.054-.333 2.556-.74 3.086-.69.463.035 1.237.44 1.919.796.818.427 1.592.831 2.262.907q.084.01.182.01c1.017 0 2.969-.742 3.371-.9a.6.6 0 0 0 .382-.559V1.458A.6.6 0 0 0 12.94.96m-.938 6.906c-.938.344-2.173.712-2.6.673-.447-.05-1.155-.42-1.84-.779-.86-.45-1.674-.875-2.38-.93a2 2 0 0 0-.16-.006c-.78 0-2.133.367-3.021.637V1.892c1.051-.331 2.557-.743 3.086-.69.462.036 1.236.44 1.919.796.818.428 1.592.831 2.261.907.646.075 1.886-.297 2.734-.589z"/></g><defs><clipPath id="a"><path fill="#fff" d="M0 0h14v14H0z"/></clipPath></defs></svg>
